packages/katcn/src/icons/svg/italic.svg

<svg width="24" height="25" viewBox="0 0 24 25" fill="none" xmlns="http://www.w3.org/2000/svg">
<path d="M20 2.29602H8.2C7.6 2.29602 7.2 2.70418 7.2 3.31643C7.2 3.92867 7.6 4.33684 8.2 4.33684H10.9L6.8 20.2552H4C3.4 20.2552 3 20.6634 3 21.2756C3 21.8879 3.4 22.296 4 22.296H15.8C16.4 22.296 16.8 21.8879 16.8 21.2756C16.8 20.6634 16.4 20.2552 15.8 20.2552H12.9L17 4.33684H20C20.6 4.33684 21 3.92867 21 3.31643C21 2.70418 20.6 2.29602 20 2.29602ZM10.8 20.2552H8.9L13 4.33684H14.9L10.8 20.2552Z" fill="black"/>
</svg>

<svg xmlns="http://www.w3.org/2000/svg" fill="none" viewBox="0 0 24 25"><path fill="#000" d="M20 2.296H8.2c-.6 0-1 .408-1 1.02s.4 1.02 1 1.02h2.7l-4.1 15.92H4c-.6 0-1 .407-1 1.02 0 .612.4 1.02 1 1.02h11.8c.6 0 1-.408 1-1.02s-.4-1.02-1-1.02h-2.9L17 4.335h3c.6 0 1-.407 1-1.02 0-.612-.4-1.02-1-1.02m-9.2 17.96H8.9L13 4.335h1.9z"/></svg>
